X: 38839
T: Summer's Coming
R: slide
M: 12/8
K: Amixolydian
|:A3 AB/c/d c2 A2 F2|G3 GAG F/G/F E2 D2|E3-E3-E3-E3|
E3-E3-E3-E3|A3 AB/c/d e2 c2 A2|G3 GAG F/G/F E2 D2|
E3-E3-E3-E3|E3-E3-E3-E2 A,|B,CD CDE DEF EFG|
F2 G2 A2 B3-B3-|-B3-B3-B3 z3|g3 fed f/g/fe-e3-|
[1 e3-e3-e3-e3-|[M:9/8]e3-e3 z3:|2 e3-e3 ABd||
M:12/8
=c3 cdc B2 A2 G2|F3 FED EFG ABd|
=c3 cBc d2 B2 G2|A3-A3-A3-A3-|A3-A3-A3 z3||

